X:1
T:Title
%%score { 1 | 2 }
L:1/8
Q:1/4=120
M:6/4
K:Ab
V:1 treble nm="Grand Piano"
V:2 bass 
V:1
 [CE]4 [CE][CE] [EA]2 [EA]2 [EA]2 | B2 A2 B2 c2 [CA]4 | [FA]4 [EG][DF] [CE]2 [CA]2 [CA]2 | %3
w: C.~Harold~Lowden * * * * *|||
 [=DA]2 [DG]2 [DA]2 B6 | c2 c2 c2 [CA]2 [CA]2 [CA]2 | [DF]2 [Fd]2 [DF]2 [DF]2 [CE]4 | %6
w: |||
 [EA]2 [EA]2 B2 c2 c2 A2 | B2 A2 G2 [CA]6 | B2 B3 c d4 [EG][EG] | [EA]2 [EA]2 [EB]2 [Ec]2 [A,CE]4 | %10
w: ||||
 [A,DF]4 [B,DF][B,EG] [A,EA]2 [A,CA]2 [A,CA]2 | [=Dc]2 [DB]2 [Dc]2 B4 _c2 | c2 c3 c e4 [CE][CE] | %13
w: |||
 [DF]2 [FA]2 [FB]2 [=Ec]2 [Ec]4 | e3 e e2 e2 [Fd]2 [FB]2 | A2 c2 B2 [CA]6 |] %16
w: |||
V:2
 [A,,A,]4 [A,,A,][A,,A,] [C,A,]2 [C,A,]2 [C,A,]2 | [E,G,E]2 [E,F,E]2 [E,G,E]2 [A,E]2 [A,,A,]4 | %2
 [D,A,]4 [D,A,][D,A,] [A,,A,]2 [F,A,]2 [F,A,]2 | [B,,F,]2 [B,,B,]2 [B,,A,]2 [E,G,E]6 | %4
 [A,E]2 [A,E]2 [A,E]2 [A,,A,]2 [A,,A,]2 [A,,A,]2 | [D,A,]2 [D,A,]2 [D,A,]2 [A,,A,]2 [A,,A,]4 | %6
 [C,A,]2 [C,A,]2 [E,G,E]2 [A,E]2 [A,E]2 [F,A,C]2 | [D,F,D]2 [E,C]2 [E,B,]2 [A,,E,]6 | %8
 [E,G,E]2 [E,G,E]3 [E,A,E] [E,B,E]4 [D,B,][D,B,] | [C,A,]2 [C,A,]2 [E,G,]2 A,2 A,,4 | %10
 D,4 D,D, C,2 F,2 F,2 | [B,,A,]2 [B,,F,]2 [B,,A,]2 [E,G,E]6 | %12
 [A,E]2 [A,E]3 [A,E] [A,CE]4 [A,,A,][A,,A,] | [D,A,]2 [D,D]2 [D,F,]2 [C,G,]2 [C,G,]4 | %14
 [F,=A,F]3 [G,B,F] [A,CF]2 [B,F]2[K:bass] [B,,B,]2 [D,B,]2 | [E,CE]2 [E,A,E]2 [E,G,D]2 [A,,A,]6 |] %16

